X: 3031
T: Minuet
%R: minuet, waltz
B: Henry Playford "Apollo's Banquet", London 1687 (5th Edition)
F: https://archive.org/details/apollosbanquetco01rugg
Z: 2017 John Chambers <jc:trillian.mit.edu>
M: 3/4
L: 1/8
K: Dm
% - - - - - - - - - -
|:\
f2 e2 d2 | ^c2 d2 e2 | f2 gf ef | d^c de d2 |\
f2 e2 d2 | ^c2 d2 e2 | f2 gf ef | d6 ::\
f2 e2 d2 |  ed ef e2 | f2 e2 d2 | He6 |]
% - - - - - - - - - -

%%sep 1 1 500
%%sep 1 1 500

